remix/Map/motorbike-fill.svg

<svg viewBox="0 0 24 24" fill="currentColor" xmlns="http://www.w3.org/2000/svg"><path d="M8.36547 10L11.2 8H14.6915L13.5996 5H11V3H15L16.0919 6H20V9H17.1838L18.6405 13.0022C21.0608 13.0764 23 15.0617 23 17.5C23 19.9853 20.9853 22 18.5 22C16.0147 22 14 19.9853 14 17.5C14 15.6722 15.0897 14.0989 16.6549 13.3944L15.4194 10H14.4718L12.89 15.87L9.96536 16.9389C9.98822 17.1227 10 17.31 10 17.5C10 19.9853 7.98528 22 5.5 22C3.01472 22 1 19.9853 1 17.5C1 15.5407 2.25221 13.8738 4 13.2561V12H2V10H8.36547ZM5.5 20C6.88071 20 8 18.8807 8 17.5C8 16.1193 6.88071 15 5.5 15C4.11929 15 3 16.1193 3 17.5C3 18.8807 4.11929 20 5.5 20ZM18.5 20C19.8807 20 21 18.8807 21 17.5C21 16.1193 19.8807 15 18.5 15C17.1193 15 16 16.1193 16 17.5C16 18.8807 17.1193 20 18.5 20Z"/></svg>

<svg viewBox="0 0 24 24" xmlns="http://www.w3.org/2000/svg"><path fill="none" d="M0 0h24v24H0Z"/><path d="M8.36 10l2.83-2h5.8v2h-5.15l-2.86 2h-7v-2h6.36Zm.91 5.06l2.92-1.07 .68 1.88 -2.93 1.064v0c.3 2.46-1.44 4.71-3.91 5.02 -2.47.3-4.72-1.44-5.03-3.91 -.31-2.47 1.43-4.72 3.9-5.03 1.71-.22 3.4.57 4.34 2.02ZM5.48 20v0c1.38 0 2.5-1.12 2.5-2.5 0-1.39-1.12-2.5-2.5-2.5v0c-1.39 0-2.5 1.11-2.5 2.5 0 1.38 1.11 2.5 2.5 2.5Zm13 2v0c-2.49 0-4.5-2.02-4.5-4.5 0-2.49 2.01-4.5 4.5-4.5v0c2.48 0 4.5 2.01 4.5 4.5 0 2.48-2.02 4.5-4.5 4.5Zm0-2v0c1.38 0 2.5-1.12 2.5-2.5 0-1.39-1.12-2.5-2.5-2.5v0c-1.39 0-2.5 1.11-2.5 2.5 0 1.38 1.11 2.5 2.5 2.5Zm-14.5-9h6l2.6-1.74 .28-1.05 1.93.51 -1.93 7.131 -1.83-.89 .11-.44 -2.19 1.45 -1-2h-4v-3Zm12.09-5h3.9v3h-2.82l1.92 5.276 -1.88.68 -2.17-5.96h-.06v-.16l-1.4-3.85h-2.6v-2h4l1.09 3Z"/></svg>
